img/heartFav.svg

<svg width="24" height="24" viewBox="0 0 24 24" fill="none" xmlns="http://www.w3.org/2000/svg">
<path d="M19.612 5.41452C19.1722 4.96607 18.65 4.61034 18.0752 4.36763C17.5005 4.12492 16.8844 4 16.2623 4C15.6401 4 15.0241 4.12492 14.4493 4.36763C13.8746 4.61034 13.3524 4.96607 12.9126 5.41452L11.9998 6.34476L11.087 5.41452C10.1986 4.50912 8.99364 4.00047 7.73725 4.00047C6.48085 4.00047 5.27591 4.50912 4.38751 5.41452C3.4991 6.31992 3 7.5479 3 8.82833C3 10.1088 3.4991 11.3367 4.38751 12.2421L5.30029 13.1724L11.9998 20L18.6992 13.1724L19.612 12.2421C20.0521 11.7939 20.4011 11.2617 20.6393 10.676C20.8774 10.0902 21 9.46237 21 8.82833C21 8.19428 20.8774 7.56645 20.6393 6.9807C20.4011 6.39494 20.0521 5.86275 19.612 5.41452V5.41452Z" stroke="#808080" stroke-width="1.7" stroke-linecap="round" stroke-linejoin="round"/>
</svg>

<svg width="24" height="24" fill="none" xmlns="http://www.w3.org/2000/svg"><path d="M19.612 5.415a4.73 4.73 0 00-1.537-1.047 4.659 4.659 0 00-3.626 0 4.731 4.731 0 00-1.536 1.047l-.913.93-.913-.93A4.693 4.693 0 007.737 4a4.693 4.693 0 00-3.35 1.415A4.875 4.875 0 003 8.828c0 1.28.5 2.509 1.388 3.414l.912.93L12 20l6.7-6.828.912-.93c.44-.448.79-.98 1.027-1.566a4.908 4.908 0 000-3.695 4.834 4.834 0 00-1.027-1.566v0z" stroke="gray" stroke-width="1.7" stroke-linecap="round" stroke-linejoin="round"/></svg>
